X:37
T:The Bedbreaker
C:Ian Wilson (Peeping Tom]
Q:1/4=160
I:abc2nwc
M:6/8
L:1/8
K:G
|:D2G G2D|EFG FGA|B2G G2D|EFG F2E|D2G G2D|EFG FGA|B z2G2D|E2F G3:|
|:d2g f2g|e2e- e2f|gfe dcB|A3-A2D|G2B BAB|c2A d2c|BAG A2F|G3-G3:|
[|E3F3|G3A3|Bee e2d|e3-e3|E3F3|G3A3|
B2A G2F|G2F E2D|E3F3|G3A3|Bee e2d|
e3-e2f|g2g f2e|d2g B2B|cdc B2A|G3-G3|]
